X: 12682
T: Fath Mo Bhuartha
R: barndance
M: 4/4
K: Gmajor
(dc|BAG2 B3 d|gagdB3) (c|dBA2B3A|
GFG4) (dc|BAG2B3d|gagdB3) (c|dBA2B3A|
GFG3) (B/c/ (3def|g2a3) (g (3fde|=f2g3) (a g^f|d2cA GG A)d/c/|
(BAG2 B3d|gagdB3) (c|dBA2B3A|GFG4) z2||

